src/images/404_cat.svg

<svg xmlns="http://www.w3.org/2000/svg" width="375" viewBox="0 0 375 375" height="375" version="1.0"><defs><clipPath id="a"><path d="M 51.042969 146 L 291 146 L 291 375 L 51.042969 375 Z M 51.042969 146"/></clipPath><clipPath id="b"><path d="M 255 24 L 324.042969 24 L 324.042969 87 L 255 87 Z M 255 24"/></clipPath></defs><path fill="#A2D2FF" d="M 315.707031 59.945312 C 314.742188 63.757812 311.480469 66.699219 307.796875 68.082031 C 304.113281 69.464844 300.054688 69.480469 296.148438 69.027344 C 291.25 68.453125 286.351562 67.132812 282.226562 64.425781 C 278.105469 61.71875 274.824219 57.507812 273.964844 52.652344 C 273.109375 47.796875 274.996094 42.375 279.117188 39.671875 L 276.539062 38.796875 C 270.257812 36.152344 262.570312 38.621094 257.992188 43.667969 C 253.410156 48.714844 251.636719 55.839844 251.898438 62.648438 C 252.160156 69.460938 254.273438 76.058594 256.648438 82.445312 C 258.210938 86.644531 260.125 91.078125 263.941406 93.425781 C 267.324219 95.507812 271.554688 95.527344 275.515625 95.230469 C 285.511719 94.484375 295.675781 91.976562 303.679688 85.945312 C 311.683594 79.914062 317.136719 69.863281 315.707031 59.945312 Z M 315.707031 59.945312"/><path fill="#A2D2FF" d="M 151.691406 165.082031 C 143.109375 166.816406 134.53125 168.550781 125.949219 170.285156 C 118.554688 206.296875 111.15625 242.308594 103.761719 278.320312 C 149.441406 309.296875 168.769531 185.386719 151.691406 165.082031 Z M 151.691406 165.082031"/><path d="M 117.960938 1.152344 C 114.945312 3.464844 113.1875 7.019531 110.984375 10.046875 C 107.613281 15.046875 104.558594 20.234375 101.816406 25.605469 C 95.570312 37.996094 90.546875 50.867188 86.742188 64.210938 C 80.996094 68.046875 75.234375 72.265625 72.097656 78.605469 C 70.902344 81.035156 69.917969 83.546875 69.144531 86.144531 C 68.371094 88.738281 67.824219 91.382812 67.496094 94.070312 C 67.167969 96.761719 67.066406 99.457031 67.195312 102.164062 C 67.320312 104.867188 67.671875 107.542969 68.25 110.191406 C 68.9375 114.582031 70.152344 118.824219 71.890625 122.914062 C 73.628906 127.003906 75.839844 130.824219 78.519531 134.371094 C 82.171875 139.429688 86.945312 143.492188 92.089844 146.96875 C 90.757812 145.554688 89.472656 144.09375 88.203125 142.621094 C 83.191406 137.1875 78.808594 127.878906 77.324219 123.675781 C 74.320312 114.058594 73.996094 108.148438 73.28125 101.503906 C 72.789062 92.460938 73.878906 86.714844 76.183594 79.324219 C 77.800781 74.507812 82.25 69.273438 86.628906 64.601562 C 86.574219 64.804688 86.507812 65.003906 86.453125 65.207031 C 86.625 64.878906 86.800781 64.558594 86.972656 64.230469 C 87.125 64.074219 87.273438 63.910156 87.421875 63.753906 C 87.320312 63.820312 87.222656 63.890625 87.121094 63.957031 C 96.859375 45.601562 107.578125 27.839844 119.277344 10.671875 C 119.25 27.453125 117.527344 45.46875 117.753906 62.578125 C 119.734375 51.761719 121.507812 40.90625 123.203125 30.042969 C 124.34375 22.214844 125.851562 14.34375 125.652344 6.402344 C 125.960938 1.859375 122.1875 -1.828125 117.960938 1.152344 Z M 117.960938 1.152344"/><path d="M 207.101562 38.660156 C 206.234375 31.378906 206.257812 23.761719 203.707031 16.820312 C 202.601562 13.476562 198.878906 11.097656 195.605469 13.152344 C 193.589844 14.429688 192.527344 16.640625 191.449219 18.6875 C 189.761719 21.921875 188.171875 25.203125 186.601562 28.492188 C 182.277344 37.511719 177.691406 46.484375 174.546875 55.972656 C 174.574219 55.675781 174.605469 55.378906 174.636719 55.082031 C 175.046875 50.917969 175.042969 46.597656 173.464844 42.660156 C 167.316406 25.03125 150.253906 25.605469 136.089844 33.261719 C 130.40625 36.65625 125.863281 41.609375 121.304688 46.335938 C 128.691406 41.617188 135.917969 36.121094 144.742188 34.527344 C 156.777344 31.316406 165.960938 33.523438 171.632812 45.085938 C 173.449219 48.453125 173.976562 52.332031 174.515625 56.070312 C 173.5625 58.910156 172.765625 61.796875 172.128906 64.722656 C 179.246094 50.824219 189.3125 38.765625 196.796875 25.085938 C 197.085938 24.597656 197.363281 24.105469 197.648438 23.613281 C 200.039062 36.550781 202.328125 49.503906 205.296875 62.328125 C 206.390625 67.316406 207.433594 72.316406 208.5625 77.296875 C 208.570312 76.828125 208.582031 76.359375 208.589844 75.890625 C 208.824219 63.449219 208.328125 51.039062 207.101562 38.660156 Z M 207.101562 38.660156"/><path d="M 209.882812 73.429688 C 212.378906 79.515625 213.695312 85.007812 213.691406 90.839844 C 213.757812 96.132812 213.839844 98.515625 212.664062 102.914062 C 211.039062 109.070312 207.152344 114.289062 204.566406 117.539062 C 204.609375 117.480469 204.785156 117.253906 205.050781 116.910156 C 200.703125 122.226562 195.8125 126.757812 190.863281 131.15625 C 186.542969 134.847656 180.609375 139.402344 177.21875 142.066406 C 175.578125 143.308594 173.882812 144.476562 172.140625 145.570312 C 178.378906 143.835938 184.15625 140.804688 189.894531 137.867188 C 204.097656 130.210938 218.378906 117.511719 218.621094 100.210938 C 218.597656 90.644531 215.789062 81.03125 209.882812 73.429688 Z M 209.882812 73.429688"/><path d="M 113.074219 70.484375 C 104.722656 70.691406 104.746094 82.921875 113.074219 83.152344 C 121.425781 82.945312 121.40625 70.714844 113.074219 70.484375 Z M 113.074219 70.484375"/><path d="M 173.09375 74.355469 C 164.742188 74.5625 164.765625 86.792969 173.09375 87.023438 C 181.445312 86.816406 181.425781 74.585938 173.09375 74.355469 Z M 173.09375 74.355469"/><path d="M 141.933594 100.601562 C 139.527344 100.226562 137.105469 100.058594 134.667969 100.097656 C 137.160156 100.785156 139.660156 101.476562 142.09375 102.34375 C 142.097656 102.289062 142.167969 102.347656 142.253906 102.417969 C 140.488281 104.488281 137.917969 106.917969 135.867188 109.078125 C 135.167969 109.820312 134.410156 110.496094 133.597656 111.113281 C 132.476562 107.007812 132.015625 102.351562 130.984375 98.109375 C 130.800781 102.085938 130.707031 106.070312 130.921875 110.046875 C 130.894531 113.882812 132.972656 115.246094 136 112.554688 C 138.789062 110.007812 141.261719 107.183594 143.417969 104.085938 C 144.992188 102.25 144.246094 100.871094 141.933594 100.601562 Z M 141.933594 100.601562"/><path d="M 139.082031 122.65625 C 136.050781 123.050781 133.105469 122.699219 130.25 121.601562 C 127.078125 120.320312 123.523438 117.296875 120.335938 115.042969 C 122.9375 118.195312 125.621094 121.613281 129.449219 123.308594 C 131.285156 124.03125 133.191406 124.34375 135.164062 124.25 C 137.136719 124.152344 139.003906 123.660156 140.765625 122.761719 C 141.285156 122.488281 141.785156 122.179688 142.261719 121.832031 C 141.230469 122.222656 140.171875 122.496094 139.082031 122.65625 Z M 139.082031 122.65625"/><path d="M 315.625 197.351562 C 311.804688 175.316406 303.433594 152.390625 285.449219 138.039062 C 282.472656 135.628906 279.3125 133.496094 275.960938 131.636719 C 273.8125 130.355469 271.398438 128.996094 268.820312 129.605469 C 268.207031 129.761719 267.644531 130.019531 267.121094 130.371094 C 266.601562 130.726562 266.15625 131.15625 265.78125 131.667969 C 265.410156 132.175781 265.136719 132.730469 264.957031 133.335938 C 264.777344 133.941406 264.707031 134.558594 264.742188 135.1875 C 264.765625 137.273438 266.050781 139.078125 267.125 140.78125 C 278.542969 156.804688 285.457031 166.019531 289.28125 181.300781 C 291.921875 190.75 290.332031 199.832031 285.199219 209.085938 C 281.125 216.308594 277.890625 221.003906 271.523438 226.308594 C 269.769531 227.917969 263.902344 230.6875 260.921875 232.898438 C 259.824219 233.816406 258.835938 234.835938 257.953125 235.964844 C 256.988281 233.46875 255.71875 231.140625 254.144531 228.976562 C 252.40625 226.621094 250.480469 224.429688 248.371094 222.398438 C 246.261719 220.367188 243.996094 218.527344 241.578125 216.878906 C 239.15625 215.230469 236.613281 213.792969 233.953125 212.574219 C 231.289062 211.355469 228.542969 210.367188 225.714844 209.613281 C 215.542969 206.964844 207.691406 208.777344 200.921875 204.269531 C 198.007812 201.6875 196.617188 199.148438 194.355469 194.273438 C 191.222656 187.765625 188.085938 178.75 185.65625 169.949219 C 184.246094 165.546875 182.953125 160.925781 180.226562 157.132812 C 178.148438 154.523438 174.953125 153.25 172.078125 151.738281 C 174.453125 153.46875 176.972656 154.882812 178.71875 157.277344 C 180.832031 160.582031 181.390625 164.628906 182.199219 168.402344 C 183.691406 177.824219 185.402344 187.234375 188.550781 196.261719 C 189.972656 200.503906 191.558594 204.785156 194.484375 208.242188 C 201.394531 216.84375 213.496094 215.632812 223.117188 218.578125 C 225.558594 219.324219 227.917969 220.265625 230.199219 221.40625 C 232.476562 222.546875 234.648438 223.871094 236.707031 225.375 C 238.765625 226.878906 240.683594 228.542969 242.464844 230.367188 C 244.242188 232.195312 245.859375 234.15625 247.308594 236.253906 C 251.441406 242.828125 254.15625 255.527344 256.164062 266.542969 C 258.65625 280.363281 257.613281 300.816406 254.25 316.40625 C 254.0625 317.238281 253.855469 318.066406 253.636719 318.890625 C 253.75 318.640625 253.863281 318.390625 253.976562 318.140625 C 258.167969 307.910156 261.09375 297.328125 262.746094 286.394531 C 264.75 272.585938 263.597656 258.449219 260.644531 244.859375 C 260.003906 242.003906 259.175781 239.203125 258.15625 236.460938 C 259.246094 235.40625 260.4375 234.480469 261.734375 233.695312 C 265.527344 231.726562 269.78125 230.753906 273.4375 228.492188 C 282.355469 223.042969 289.410156 214.796875 294.304688 205.625 C 300.429688 195.046875 299.585938 182.183594 295.96875 170.90625 C 294.519531 166.03125 292.605469 161.347656 290.226562 156.851562 C 299.273438 169.699219 304.746094 187.253906 307.628906 203.007812 C 308.652344 209.765625 309.773438 220.113281 308.332031 226.585938 C 305.449219 240.46875 299.1875 249.863281 287.832031 259.726562 C 283.234375 263.644531 274.261719 267.425781 266.488281 267.84375 C 270.574219 268.179688 274.609375 267.871094 278.597656 266.925781 C 282.582031 265.976562 286.324219 264.4375 289.824219 262.304688 C 302.886719 253.96875 312.832031 240.726562 315.992188 225.453125 C 317.796875 216.179688 316.921875 206.636719 315.625 197.351562 Z M 315.625 197.351562"/><path d="M 167.300781 219.730469 C 163.902344 238.25 162.460938 256.925781 162.972656 275.746094 C 167.253906 257.40625 168.417969 238.503906 167.300781 219.730469 Z M 167.300781 219.730469"/><g clip-path="url(#a)"><path d="M 254.003906 322.066406 C 244.011719 312.035156 231.828125 304.382812 219.261719 297.980469 C 211.9375 294.625 204.246094 292.207031 196.5 290.011719 C 194.71875 287.949219 192.757812 286.082031 190.613281 284.40625 C 189.222656 283.167969 188.007812 281.78125 186.960938 280.246094 C 185.992188 278.980469 185.382812 277.5625 185.136719 275.992188 C 183.542969 269.007812 185.644531 257.59375 190.21875 252.734375 C 201.996094 240.328125 203.511719 252.867188 202.347656 229.695312 C 201.378906 233.875 201.222656 238.371094 199.570312 242.339844 C 199.402344 242.613281 198.984375 242.734375 198.332031 242.910156 C 192.292969 243.886719 186.140625 248.816406 183.628906 252.738281 C 182.371094 254.730469 181.363281 256.839844 180.601562 259.066406 C 179.839844 261.292969 179.34375 263.574219 179.117188 265.917969 C 178.886719 268.257812 178.933594 270.59375 179.25 272.925781 C 179.566406 275.257812 180.148438 277.523438 180.996094 279.71875 C 182.816406 283.289062 185.960938 285.925781 189.339844 288.019531 C 174.398438 283.511719 158.734375 282.648438 143.359375 284.589844 C 144.109375 273.664062 144.996094 262.753906 146.097656 251.855469 C 146.839844 239.925781 147.121094 227.96875 147.335938 216.019531 C 141.292969 238.335938 138.179688 261.835938 142.253906 284.726562 C 136.691406 285.484375 131.199219 286.582031 125.773438 288.027344 C 121.171875 289.1875 116.667969 290.648438 112.257812 292.410156 C 114.75 278.628906 115.648438 264.75 114.957031 250.761719 C 114.359375 239.582031 112.992188 228.410156 109.460938 217.742188 C 110.84375 230.792969 109.960938 243.894531 110.152344 256.984375 C 110.089844 268.933594 111.046875 280.847656 111.320312 292.785156 C 101.6875 296.6875 92.808594 301.878906 84.679688 308.351562 C 83.183594 309.609375 81.707031 310.890625 80.246094 312.199219 C 81.371094 307.066406 82.066406 301.878906 82.332031 296.632812 C 82.839844 285.230469 81.269531 273.902344 80.214844 262.578125 C 79.046875 245.808594 79.632812 228.960938 77.523438 212.246094 C 76.195312 195.179688 74.839844 180.4375 80.949219 164.949219 C 81.390625 163.855469 83.714844 159.765625 85.5 158.429688 C 87.6875 156.667969 89.972656 155.054688 92.363281 153.582031 C 92.4375 153.769531 92.546875 153.9375 92.683594 154.089844 C 95.945312 156.519531 100.546875 154.335938 103.679688 152.640625 C 106.082031 152.507812 106.433594 157.550781 110.160156 158.714844 C 112.503906 159.644531 115.210938 158.6875 117.261719 158.476562 C 119.113281 158.582031 120.957031 158.96875 122.804688 158.546875 C 124.589844 158.363281 126.222656 157.5625 127.964844 157.175781 C 128.722656 157.109375 134.738281 156.554688 137.742188 155.332031 C 139.695312 154.683594 141.679688 154.550781 143.703125 154.9375 C 146.421875 155.464844 149.128906 155.410156 151.824219 154.773438 C 153.226562 154.253906 154.671875 154.0625 156.164062 154.199219 C 164.003906 155.226562 168.566406 157.554688 173.785156 147.402344 C 174.492188 145.890625 173.597656 147.449219 173.054688 147.988281 C 171.589844 149.734375 169.84375 151.125 167.8125 152.160156 C 165.523438 153.492188 161.570312 151.699219 158.785156 150.832031 C 154.507812 149.234375 151.78125 150.425781 148.351562 150.339844 C 145.941406 150.28125 143.507812 149.203125 140.90625 149.183594 C 138.230469 149.132812 135.65625 149.949219 133.074219 150.535156 C 130.945312 151.0625 130.039062 150.871094 126.652344 151.453125 C 124.714844 151.871094 122.945312 152.847656 120.96875 153.113281 C 119.449219 153.15625 115.953125 152.820312 113.894531 153.804688 C 113.136719 154.066406 112.363281 154.152344 111.566406 154.0625 C 110.847656 153.953125 109.738281 152.007812 108.714844 151.054688 C 106.910156 149.101562 103.796875 147.9375 101.542969 149.839844 C 99.488281 151.300781 97.269531 153.496094 93.789062 152.832031 C 93.265625 150.632812 93.523438 148.261719 93.230469 146.011719 C 92.921875 147.917969 92.574219 149.820312 92.269531 151.730469 C 92.15625 152.292969 92.171875 152.851562 92.316406 153.410156 C 89.40625 154.636719 86.421875 155.742188 83.785156 157.492188 C 81.214844 159.410156 79.140625 161.761719 77.5625 164.546875 C 68.945312 179.90625 69.058594 197.964844 69.4375 215.078125 C 70.34375 236 70.207031 257.121094 75.355469 277.566406 C 78.132812 289.851562 79.40625 300.929688 78.878906 313.453125 C 68.679688 322.8125 59.402344 333.003906 51.042969 344.035156 C 70.003906 325.792969 90.886719 308.597656 113.371094 301.671875 C 132.984375 295.492188 155.9375 293.191406 171.910156 295.6875 C 183.164062 297.644531 194.15625 300.972656 205.011719 304.488281 C 216.09375 308.0625 223.8125 312.363281 235.746094 319.542969 C 252.820312 329.9375 272.0625 351.304688 288.226562 372.085938 C 288.96875 373.03125 289.707031 373.976562 290.449219 374.921875 C 280.652344 355.839844 269.042969 337.476562 254.003906 322.066406 Z M 254.003906 322.066406"/></g><g clip-path="url(#b)"><path d="M 319.300781 42.09375 C 317.773438 39.464844 315.957031 37.054688 313.847656 34.867188 C 311.734375 32.679688 309.394531 30.773438 306.820312 29.152344 C 301.363281 25.335938 294.5 23.453125 287.992188 25.480469 C 286.796875 25.644531 279.007812 28.695312 282.0625 27.90625 C 286.65625 27.03125 291.648438 26.339844 296.3125 28.175781 C 305.839844 32.78125 312.5 42.476562 314.574219 53.222656 C 314.859375 55.066406 314.8125 56.90625 314.441406 58.734375 C 314.070312 60.566406 313.394531 62.273438 312.414062 63.863281 C 311.25 65.726562 309.867188 67.414062 308.265625 68.921875 C 306.667969 70.429688 304.90625 71.710938 302.976562 72.765625 C 301.046875 73.824219 299.019531 74.617188 296.886719 75.152344 C 294.753906 75.6875 292.589844 75.945312 290.390625 75.921875 C 281.597656 75.527344 273.050781 73.066406 266.695312 65.691406 C 264.296875 62.546875 260.578125 54.179688 261.980469 48.988281 C 264.148438 39.226562 273.433594 34.617188 283.171875 35.53125 C 272.835938 32.113281 261.230469 36.320312 256.917969 46.636719 C 253.925781 53.675781 255.671875 61.941406 258.867188 68.617188 C 268.785156 86.847656 296.734375 93.144531 312.734375 79.289062 C 324.714844 69.878906 327.621094 55.003906 319.300781 42.09375 Z M 319.300781 42.09375"/></g></svg>

<svg xmlns="http://www.w3.org/2000/svg" width="375" height="375" version="1.0"><defs><clipPath id="a"><path d="M51.043 146H291v229H51.043Zm0 0"/></clipPath><clipPath id="b"><path d="M255 24h69.043v63H255Zm0 0"/></clipPath></defs><path fill="#A2D2FF" d="M315.707 59.945c-.965 3.813-4.227 6.754-7.91 8.137-3.684 1.383-7.742 1.398-11.649.945-4.898-.574-9.796-1.894-13.921-4.601-4.122-2.707-7.403-6.918-8.262-11.774-.856-4.855 1.031-10.277 5.152-12.98l-2.578-.875c-6.281-2.645-13.969-.176-18.547 4.871-4.582 5.047-6.355 12.172-6.094 18.98.262 6.813 2.375 13.41 4.75 19.797 1.563 4.2 3.477 8.633 7.293 10.98 3.383 2.083 7.614 2.102 11.575 1.805 9.996-.746 20.16-3.253 28.164-9.285 8.004-6.03 13.457-16.082 12.027-26ZM151.691 165.082l-25.742 5.203c-7.394 36.012-14.793 72.024-22.187 108.035 45.68 30.977 65.008-92.933 47.93-113.238Zm0 0"/><path d="M117.96 1.152c-3.015 2.313-4.772 5.868-6.976 8.895-3.37 5-6.425 10.187-9.168 15.558a218.946 218.946 0 0 0-15.074 38.606c-5.746 3.836-11.508 8.055-14.644 14.394a48.211 48.211 0 0 0-4.903 23.56 47.962 47.962 0 0 0 1.055 8.026 53.612 53.612 0 0 0 3.64 12.723 53.943 53.943 0 0 0 6.63 11.457c3.652 5.059 8.425 9.121 13.57 12.598a132.375 132.375 0 0 1-3.887-4.348c-5.012-5.434-9.394-14.742-10.879-18.945-3.004-9.617-3.328-15.528-4.043-22.172-.492-9.043.598-14.79 2.903-22.18 1.617-4.816 6.066-10.05 10.445-14.722-.055.203-.121.402-.176.605.172-.328.348-.648.52-.977.152-.156.3-.32.449-.476-.102.066-.2.137-.3.203a563.626 563.626 0 0 1 32.155-53.285c-.027 16.781-1.75 34.797-1.523 51.906 1.98-10.816 3.754-21.672 5.45-32.535 1.14-7.828 2.648-15.7 2.448-23.64.309-4.544-3.465-8.231-7.691-5.25ZM207.102 38.66c-.868-7.281-.844-14.898-3.395-21.84-1.105-3.343-4.828-5.722-8.102-3.668-2.015 1.278-3.078 3.489-4.156 5.536-1.687 3.234-3.277 6.515-4.847 9.804-4.325 9.02-8.91 17.992-12.055 27.48.027-.296.058-.593.09-.89.41-4.164.406-8.484-1.172-12.422-6.149-17.629-23.211-17.055-37.375-9.398-5.684 3.394-10.227 8.347-14.785 13.074 7.386-4.719 14.613-10.215 23.437-11.809 12.035-3.21 21.219-1.004 26.89 10.559 1.817 3.367 2.345 7.246 2.884 10.984a81.964 81.964 0 0 0-2.387 8.653c7.117-13.899 17.184-25.957 24.668-39.637.289-.488.566-.98.851-1.473 2.391 12.938 4.68 25.89 7.649 38.715 1.094 4.988 2.137 9.988 3.266 14.969.007-.469.019-.938.027-1.406a316.751 316.751 0 0 0-1.488-37.23Zm0 0"/><path d="M209.883 73.43c2.496 6.086 3.812 11.578 3.808 17.41.067 5.293.149 7.676-1.027 12.074-1.625 6.156-5.512 11.375-8.098 14.625.043-.059.22-.285.485-.629-4.348 5.317-9.238 9.848-14.188 14.246-4.32 3.692-10.254 8.246-13.644 10.91a70.58 70.58 0 0 1-5.078 3.504c6.238-1.734 12.015-4.765 17.754-7.703 14.203-7.656 28.484-20.355 28.726-37.656-.023-9.566-2.832-19.18-8.738-26.781ZM113.074 70.484c-8.351.207-8.328 12.438 0 12.668 8.352-.207 8.332-12.437 0-12.668ZM173.094 74.355c-8.352.207-8.328 12.438 0 12.668 8.351-.207 8.332-12.437 0-12.668ZM141.934 100.602a42.66 42.66 0 0 0-7.266-.504c2.492.687 4.992 1.379 7.426 2.246.004-.055.074.004.16.074-1.766 2.07-4.336 4.5-6.387 6.66-.699.742-1.457 1.418-2.27 2.035-1.12-4.105-1.581-8.761-2.613-13.004-.183 3.977-.277 7.961-.062 11.938-.027 3.836 2.05 5.2 5.078 2.508a50.518 50.518 0 0 0 7.418-8.47c1.574-1.835.828-3.214-1.484-3.483ZM139.082 122.656a17.834 17.834 0 0 1-8.832-1.054c-3.172-1.282-6.727-4.305-9.914-6.559 2.602 3.152 5.285 6.57 9.113 8.266a13.664 13.664 0 0 0 5.715.941c1.973-.098 3.84-.59 5.602-1.488.52-.274 1.02-.582 1.496-.93a15.17 15.17 0 0 1-3.18.824ZM315.625 197.352c-3.82-22.036-12.191-44.961-30.176-59.313a65.668 65.668 0 0 0-9.488-6.402c-2.149-1.282-4.563-2.64-7.14-2.032a5.426 5.426 0 0 0-3.864 3.73 5.4 5.4 0 0 0-.215 1.852c.024 2.086 1.309 3.891 2.383 5.594 11.418 16.024 18.332 25.239 22.156 40.52 2.64 9.449 1.051 18.531-4.082 27.785-4.074 7.223-7.308 11.918-13.676 17.223-1.753 1.609-7.62 4.379-10.601 6.59a20.224 20.224 0 0 0-2.969 3.066 30.555 30.555 0 0 0-3.808-6.988 51.91 51.91 0 0 0-5.774-6.579 52.027 52.027 0 0 0-22.656-12.785c-10.172-2.648-18.024-.836-24.793-5.343-2.914-2.583-4.305-5.122-6.567-9.997-3.132-6.507-6.27-15.523-8.699-24.324-1.41-4.402-2.703-9.023-5.43-12.816-2.078-2.61-5.273-3.883-8.148-5.395 2.375 1.73 4.895 3.145 6.64 5.54 2.114 3.304 2.673 7.35 3.481 11.124 1.492 9.422 3.203 18.832 6.352 27.86 1.422 4.242 3.008 8.523 5.933 11.98 6.91 8.602 19.012 7.39 28.633 10.336a45.606 45.606 0 0 1 24.192 17.676c4.132 6.574 6.847 19.273 8.855 30.289 2.492 13.82 1.45 34.273-1.914 49.863-.188.832-.395 1.66-.613 2.485l.34-.75a137.733 137.733 0 0 0 8.77-31.746c2.003-13.81.85-27.946-2.102-41.536a64.743 64.743 0 0 0-2.489-8.398 20.122 20.122 0 0 1 3.578-2.766c3.793-1.968 8.047-2.941 11.704-5.203 8.917-5.449 15.972-13.695 20.867-22.867 6.125-10.578 5.28-23.441 1.664-34.719a76.723 76.723 0 0 0-5.742-14.054c9.046 12.847 14.52 30.402 17.402 46.156 1.023 6.758 2.144 17.105.703 23.578-2.883 13.883-9.144 23.277-20.5 33.14-4.598 3.919-13.57 7.7-21.344 8.118 4.086.336 8.121.027 12.11-.918a38.657 38.657 0 0 0 11.226-4.621c13.063-8.336 23.008-21.578 26.168-36.852 1.805-9.273.93-18.816-.367-28.101ZM167.3 219.73a269.027 269.027 0 0 0-4.327 56.016c4.28-18.34 5.445-37.242 4.328-56.016Zm0 0"/><g clip-path="url(#a)"><path d="M254.004 322.066c-9.992-10.03-22.176-17.683-34.742-24.086-7.325-3.355-15.016-5.773-22.762-7.968a41.61 41.61 0 0 0-5.887-5.606 22.577 22.577 0 0 1-3.652-4.16 9.253 9.253 0 0 1-1.824-4.254c-1.594-6.984.508-18.398 5.082-23.258 11.777-12.406 13.293.133 12.129-23.039-.97 4.18-1.125 8.676-2.778 12.645-.168.273-.586.394-1.238.57-6.039.977-12.191 5.906-14.703 9.828a30 30 0 0 0-3.027 6.328 30.007 30.007 0 0 0-1.485 6.852c-.23 2.34-.183 4.676.133 7.008a29.995 29.995 0 0 0 1.746 6.793c1.82 3.57 4.965 6.207 8.344 8.3-14.942-4.507-30.606-5.37-45.98-3.43.75-10.925 1.636-21.835 2.738-32.734.742-11.93 1.023-23.886 1.238-35.835-6.043 22.316-9.156 45.816-5.082 68.707a134.471 134.471 0 0 0-16.48 3.3 106.719 106.719 0 0 0-13.516 4.383 182.594 182.594 0 0 0 2.699-41.648c-.598-11.18-1.965-22.352-5.496-33.02 1.383 13.051.5 26.153.691 39.242-.062 11.95.895 23.864 1.168 35.801a107.123 107.123 0 0 0-26.64 15.567 187.11 187.11 0 0 0-4.434 3.847 95.018 95.018 0 0 0 2.086-15.566c.508-11.403-1.062-22.73-2.117-34.055-1.168-16.77-.582-33.617-2.692-50.332-1.328-17.066-2.683-31.809 3.426-47.297.442-1.094 2.766-5.183 4.551-6.52a66.682 66.682 0 0 1 6.863-4.847c.075.188.184.356.32.508 3.262 2.43 7.864.246 10.997-1.45 2.402-.132 2.754 4.91 6.48 6.075 2.344.93 5.05-.028 7.102-.238 1.851.105 3.695.492 5.543.07 1.785-.184 3.418-.984 5.16-1.371.758-.067 6.773-.621 9.777-1.844a11.66 11.66 0 0 1 5.961-.394c2.719.527 5.426.472 8.121-.165a9.768 9.768 0 0 1 4.34-.574c7.84 1.028 12.402 3.356 17.621-6.797.707-1.511-.187.047-.73.586a16.63 16.63 0 0 1-5.243 4.172c-2.289 1.332-6.242-.46-9.027-1.328-4.277-1.598-7.004-.406-10.433-.492-2.41-.059-4.844-1.137-7.446-1.156-2.676-.051-5.25.765-7.832 1.351-2.129.528-3.035.336-6.422.918-1.937.418-3.707 1.395-5.683 1.66-1.52.043-5.016-.293-7.074.692a5.237 5.237 0 0 1-2.329.257c-.718-.109-1.828-2.054-2.851-3.007-1.805-1.953-4.918-3.118-7.172-1.215-2.055 1.46-4.273 3.656-7.754 2.992-.523-2.2-.266-4.57-.559-6.82-.308 1.906-.656 3.808-.96 5.718a3.699 3.699 0 0 0 .046 1.68c-2.91 1.227-5.894 2.332-8.53 4.082a22.632 22.632 0 0 0-6.224 7.055c-8.617 15.36-8.503 33.418-8.124 50.531.906 20.922.769 42.043 5.917 62.488 2.778 12.286 4.051 23.364 3.524 35.887a229.764 229.764 0 0 0-27.836 30.582c18.96-18.242 39.844-35.437 62.328-42.363 19.613-6.18 42.567-8.48 58.54-5.985 11.253 1.958 22.245 5.286 33.1 8.801 11.083 3.575 18.802 7.875 30.735 15.055 17.074 10.394 36.316 31.762 52.48 52.543.743.945 1.481 1.89 2.223 2.836-9.797-19.082-21.406-37.445-36.445-52.856Zm0 0"/></g><g clip-path="url(#b)"><path d="M319.3 42.094a37.537 37.537 0 0 0-12.48-12.942c-5.457-3.816-12.32-5.699-18.828-3.672-1.195.165-8.984 3.215-5.93 2.426 4.594-.875 9.586-1.566 14.25.27 9.528 4.605 16.188 14.3 18.262 25.047a15.558 15.558 0 0 1-.133 5.511 15.584 15.584 0 0 1-2.027 5.13 25.414 25.414 0 0 1-4.148 5.058 25.472 25.472 0 0 1-5.29 3.844 25.505 25.505 0 0 1-6.09 2.386 25.462 25.462 0 0 1-6.495.77c-8.793-.395-17.34-2.856-23.696-10.23-2.398-3.145-6.117-11.512-4.715-16.704 2.168-9.761 11.454-14.37 21.192-13.457-10.336-3.418-21.942.79-26.254 11.106-2.992 7.039-1.246 15.304 1.95 21.98 9.917 18.23 37.866 24.528 53.866 10.672 11.98-9.41 14.887-24.285 6.567-37.195Zm0 0"/></g></svg>
